lg/xampp.svg

<svg viewBox="0 0 256 258" version="1.1" xmlns="http://www.w3.org/2000/svg" height="1em" width="1em">
  <g stroke="none" stroke-width="1" fill="none" fill-rule="evenodd">
    <g>
      <path d="M127.928916,0.00180988628 C161.155628,0.00180988628 194.384153,0.00180988628 227.610865,0 C231.780293,0 235.911652,0.361977256 239.91249,1.58184061 C248.586712,4.22608447 253.180333,10.4466636 254.980438,19.0200949 C255.69468,22.4190614 255.897713,25.8849936 255.904964,29.3491159 C255.957535,52.6206337 255.997416,75.8921515 255.999229,99.1636693 C256.001042,141.547586 256.00648,183.931503 255.919466,226.31542 C255.906776,232.248227 255.59135,238.24619 252.661874,243.650511 C249.413346,249.644854 244.964748,254.388566 238.212088,256.475365 C236.992078,256.851821 235.717683,257.280764 234.466855,257.280764 C231.584511,257.282574 228.780118,257.997479 225.906839,257.997479 C160.840202,257.99205 95.7735648,258.030057 30.7069279,257.926894 C25.4153804,257.917844 20.0368188,257.532339 15.0099394,255.378574 C14.0092767,254.949631 12.9995501,254.589464 12.1203448,253.919806 C5.71936699,249.042162 1.37409831,242.959134 0.442321884,234.727772 C0.106954882,231.759558 0,228.807634 0,225.83942 C0.0108767677,159.887164 0.0163151515,93.9349079 0.050758249,27.9826518 C0.0525710436,24.1565522 0.092452525,20.2652967 1.26895623,16.6038967 C4.4032781,6.84498991 11.2610801,1.51849459 21.4272323,0.436182594 C23.7893036,0.184608401 26.1731286,0.0217186354 28.5460767,0.0199087491 C61.6730854,-0.00723954512 94.8019068,0.00180988628 127.928916,0.00180988628 L127.928916,0.00180988628 Z" fill="#FB7A24"/>
      <path d="M128.775254,164.113293 C128.047679,168.567424 127.537291,172.592612 125.937351,176.30288 C118.44623,193.686843 105.681098,204.28011 86.5433558,206.388628 C63.921581,208.880842 43.0282481,194.919376 36.7461311,173.235122 C34.4692936,165.376594 34.6973393,157.366035 35.5226477,149.368145 C36.4040625,140.82186 38.921615,132.717187 42.8526891,125.072225 C43.4155639,123.979054 43.4047046,123.153745 42.7006586,122.094962 C36.6646862,113.01657 34.3226927,102.987987 35.1733395,92.1630542 C35.6276211,86.3768462 37.0320932,80.8422124 39.6564291,75.6586967 C47.3448281,60.4737467 64.225642,47.5873529 86.8347475,49.726639 C106.714544,51.6071114 125.128332,68.7557886 128.002432,88.041942 C128.147223,89.0102314 128.418706,89.960422 128.737246,91.3884226 C129.213246,88.8020944 129.557125,86.6682379 130.002357,84.5542902 C133.705385,67.0327764 150.855872,48.6986234 175.166271,48.4723875 C199.80607,48.2443418 218.053348,67.5685028 221.495753,85.51715 C222.950902,93.1023854 222.697518,100.680381 221.497563,108.254757 C220.297608,115.821894 218.075067,123.095829 214.82632,130.029505 C214.109605,131.55886 214.18381,132.659271 215.101423,134.080032 C220.408011,142.304157 222.750005,151.331873 222.449563,161.136029 C221.821533,181.593179 207.353298,199.938192 187.448163,204.736201 C159.657352,211.432783 138.354984,194.812592 131.186023,174.70475 C130.016836,171.432475 129.463011,168.015409 128.775254,164.113293 L128.775254,164.113293 Z M179.263855,128.172561 C179.560676,127.016044 180.45657,126.322857 181.10089,125.466781 C188.068954,116.2074 191.733975,105.863897 190.915906,94.2172757 C190.320453,85.7162375 183.328861,79.7291321 174.86583,80.0458622 C166.39737,80.3625924 160.015709,86.8944738 159.896257,95.3683637 C159.887207,96.0615503 159.928835,96.7565468 159.885397,97.4461137 C159.302614,106.477449 154.319996,111.423869 146.769148,111.975885 C145.390014,112.077238 144.007261,112.200311 142.626317,112.20393 C132.82578,112.225649 123.027053,112.222029 113.226516,112.21298 C108.946134,112.20936 104.70195,112.674501 100.626085,113.932372 C81.5987451,119.803645 70.5041392,132.814921 66.830069,152.207858 C66.1024946,156.044818 65.4473155,160.026569 66.7051869,163.968502 C68.509644,169.620778 71.8742235,173.825145 77.8305608,175.231427 C84.0040846,176.688386 89.3812582,175.075777 93.652591,170.22709 C96.4144782,167.092367 97.2850337,163.36762 97.4913608,159.279085 C98.0252774,148.763643 103.751759,143.507732 113.300722,143.587367 C127.949945,143.708629 142.600979,143.612705 157.252012,143.623565 C159.852819,143.625375 159.876348,143.659762 159.889017,146.231612 C159.914356,150.982564 159.767755,155.738947 159.950553,160.48447 C160.249185,168.230785 167.065218,174.670362 174.967184,174.896598 C183.115294,175.130074 190.37837,169.103151 190.908667,161.235573 C191.366568,154.426779 191.33761,147.574548 190.890568,140.760324 C190.544879,135.484504 187.690688,131.725369 182.85467,129.542646 C181.694533,129.021398 180.474669,128.630463 179.263855,128.172561 L179.263855,128.172561 Z M87.4320102,112.189451 C90.583023,112.189451 93.1548721,112.160493 95.7249114,112.202121 C96.9990716,112.222029 97.4714521,111.673634 97.4605928,110.424812 C97.4189654,105.482011 97.6741594,100.522921 97.3592391,95.5982193 C96.9429651,89.1007258 93.4878913,84.4040696 87.4392497,82.0349278 C81.2367677,79.6060598 75.5609628,80.992433 70.7611431,85.5732564 C65.9396048,90.1757985 65.2970949,95.8045464 66.9839094,101.965401 C68.5331725,107.626727 72.1945734,110.842896 77.9518233,111.814805 C81.296494,112.37768 84.6592636,112.108006 87.4320102,112.189451 L87.4320102,112.189451 Z" fill="#FFFFFF"/>
    </g>
  </g>
</svg>

<svg viewBox="0 0 256 258" xmlns="http://www.w3.org/2000/svg" height="1em" width="1em">
  <g fill="none" fill-rule="evenodd">
    <path d="M127.929.002c33.227 0 66.455 0 99.682-.002 4.17 0 8.3.362 12.301 1.582 8.675 2.644 13.268 8.865 15.068 17.438.715 3.4.918 6.865.925 10.33.053 23.27.092 46.542.094 69.814.002 42.384.007 84.768-.08 127.151-.012 5.933-.328 11.931-3.257 17.336-3.249 5.994-7.697 10.738-14.45 12.824-1.22.377-2.494.806-3.745.806-2.882.002-5.687.716-8.56.716-65.067-.005-130.133.033-195.2-.07-5.292-.01-10.67-.395-15.697-2.548-1-.43-2.01-.79-2.89-1.46-6.4-4.877-10.746-10.96-11.678-19.191-.335-2.968-.442-5.92-.442-8.889.01-65.952.016-131.904.05-197.856.003-3.826.042-7.718 1.219-11.38C4.403 6.846 11.261 1.519 21.427.437 23.79.185 26.173.022 28.547.02 61.672-.007 94.801.002 127.928.002Z" fill="#FB7A24"/>
    <path d="M128.775 164.113c-.727 4.454-1.238 8.48-2.838 12.19-7.49 17.384-20.256 27.977-39.394 30.086-22.621 2.492-43.515-11.47-49.797-33.154-2.277-7.858-2.049-15.869-1.223-23.867.881-8.546 3.399-16.65 7.33-24.296.563-1.093.552-1.918-.152-2.977-6.036-9.078-8.378-19.107-7.528-29.932.455-5.786 1.86-11.32 4.483-16.504 7.689-15.185 24.57-28.072 47.179-25.932 19.88 1.88 38.293 19.029 41.167 38.315.145.968.417 1.918.735 3.346.476-2.586.82-4.72 1.265-6.834 3.703-17.521 20.854-35.855 45.164-36.082 24.64-.228 42.887 19.097 46.33 37.045 1.455 7.585 1.202 15.163.002 22.738a81.02 81.02 0 0 1-6.672 21.775c-.716 1.529-.642 2.63.275 4.05 5.307 8.224 7.649 17.252 7.349 27.056-.628 20.457-15.097 38.802-35.002 43.6-27.79 6.697-49.093-9.923-56.262-30.031-1.17-3.273-1.723-6.69-2.41-10.592Zm50.489-35.94c.297-1.157 1.193-1.85 1.837-2.706 6.968-9.26 10.633-19.603 9.815-31.25-.596-8.5-7.587-14.488-16.05-14.171-8.469.317-14.85 6.848-14.97 15.322-.009.694.033 1.389-.01 2.078-.583 9.031-5.566 13.978-13.117 14.53-1.379.101-2.762.224-4.143.228-9.8.022-19.599.018-29.4.009-4.28-.004-8.524.462-12.6 1.72-19.027 5.87-30.122 18.882-33.796 38.275-.728 3.837-1.383 7.819-.125 11.76 1.805 5.653 5.17 9.857 11.126 11.263 6.173 1.457 11.55-.155 15.822-5.004 2.761-3.135 3.632-6.86 3.838-10.948.534-10.515 6.26-15.771 15.81-15.692 14.649.122 29.3.026 43.951.037 2.6.001 2.624.036 2.637 2.608.025 4.75-.121 9.507.062 14.252.298 7.747 7.114 14.186 15.016 14.413 8.148.233 15.411-5.794 15.942-13.661.458-6.81.429-13.661-.018-20.476-.346-5.275-3.2-9.035-8.036-11.217-1.16-.522-2.38-.913-3.591-1.37Zm-91.832-15.984c3.151 0 5.723-.029 8.293.013 1.274.02 1.746-.528 1.736-1.777-.042-4.943.213-9.902-.102-14.827-.416-6.497-3.871-11.194-9.92-13.563-6.202-2.429-11.878-1.043-16.678 3.538-4.821 4.603-5.464 10.232-3.777 16.392 1.55 5.662 5.21 8.878 10.968 9.85 3.344.563 6.707.293 9.48.374Z" fill="#FFF"/>
  </g>
</svg>
